!!!OTL: "Juerg Drachentoedter" HERR KOENIG WAS RUFEST DU ACH UND WEH
!!!ARE: Europa, Mitteleuropa, Deutschland, Rhein
!!!SCT: Z1037
!!!YEM: Copyright 1995, estate of Helmut Schaffrath.
**kern
*ICvox
*Ivox
*M6/4
*k[b-]
*F:
{8a
8g
=1
4f
4f
4g
4a
4a
4b-
=2
4.cc
8dd
8cc
8b-
2a}
{8a
8g
=3
4f
4f
4g
4a
4a
4b-
=4
4.cc
8dd
8cc
8b-
2a
4r
=5
2dd
4dd
2b-
4r}
=6
{2cc
8cc
8b-
2a
4cc
=7
4.cc
8b-
8b-
8a
2g}
{4g
=8
4a
4a
4b-
4cc
4g
4b-
=9
4.a
8b-
4g
2f}
==
!!!AGN: Romanze, Ballade
!!!ONB: ESAC (Essen Associative Code) Database: ZUCCAL
!!!AMT: compound duple
!!!AIN: vox
!!!EED: Helmut Schaffrath
!!!EEV: 1.0
*-
